X: 042
M: C
L: 1/8
K: Bb
f>dBb f<Bd>B | FB {e}dc/B/ Ac cd/e/ | f>dBb f<dBD | EGCF B,B- Bd/e/ |
f>dBb f<Bd>B | FB {e}dc/B/ Ac cd/e/ | f>de<g f<de>c | B>F {A}GF/E/ DB,-B, |]


